X:1
T:Eichendorff-Lieder
T:Der Soldat I
T:Eichendorff-Lieder
T:5. Der Soldat I
T:Hugo Wolf
T:Joseph von Eichendorff
T:OpenScore (CC0)
T:OpenScore (CC0)
T:OpenScore (CC0)
T:OpenScore (CC0)
C:Hugo Wolf
Z:Joseph von Eichendorff
Z:OpenScore (CC0)
%%score 1 { ( 2 4 ) | ( 3 5 ) }
L:1/8
Q:1/4=140
M:3/8
K:C
V:1 treble nm="Voice"
V:2 bass nm="Piano"
V:4 bass 
V:3 bass 
V:5 bass 
V:1
"^Frisch" z3 | z3 | z3 | z3 | z3 | z3 | z3 | z3 | z3 | z3 | z3 | z3 |!p! G2 c | A B d | c2 G | %15
w: ||||||||||||Ist auch|schmuck nicht mein|Röss- lein,|
w: ||||||||||||True, my|nag he's no|beau- ty,|
 z z G | G c B |!<(!{/c} B3-!<)! |!>(! B2!>)! z | z A _A | G2 c | (AB) d | c2 G | z z G | %24
w: so|ist's doch recht|klug,|_|trägt im|Fin- stern|zu _ 'nem|Schlöss- lein|mich|
w: yet|dul- lard he's|not:|_|to my|La- dy|love * on|du- ty,|right|
 A G z/ ^F/ | E3- | E z z | z3 | A2 d | B ^c e | d2 A | z z A | A2 B | ^c2 d | ^c3- | c B A | %36
w: rasch noch ge-|nug.|_||Ist das|Schloss auch nicht|präch- tig,|zum|Gar- ten|aus der|Tür|_ tritt ein|
w: brisk- ly he'll|trot.|_||Tho' her|home boast no|splend- our,|be-|side the|gar- den|gate,|_ there a|
 A2 d | (B^c) e | d2 A | z z A |[Q:3/8=80] B[Q:1/4=110]"^rit." ^A[Q:3/8=66] ^G | %41
w: Mäd- chen|doch * all-|näch- tig|dort|freund- lich her-|
w: maid- en|fair * and|slend- er|at|night time doth|
[Q:1/4=140]"^a tempo" ^F3- | F z z | z3 |[Q:1/4=130]"^ein wenig zurückhaltend""^zart"!p! B2 e | %45
w: für.|_||Und ist|
w: wait.|_||O- thers|
 d^c B | (^A2 ^F) | z3 | B2[Q:3/8=86] ^c |[Q:3/8=82] (3(d/e/d/)[Q:1/4=116]"^rit." ^c[Q:3/8=66] B | %50
w: auch * die|Klei- ne||nicht die|schönst' _ _ auf der|
w: may * be|fair- er,||rich- er,|grand- * * er, than|
[Q:1/4=110]"^a tempo" ^A3- |[Q:3/8=60] A2 z |[Q:1/4=140]"^frisch" B2 ^f |!<(! ^c2 ^d!<)! | %54
w: Welt,|_|so gibt's|doch just|
w: she,|_|yet I|do pre-|
!f! (^f2 e- |!>(! e ^d) ^c!>)! | z ^F ^G | =A3/2 ^G/ ^F |{/^G} B3- | B3 | z ^F ^G | %61
w: kei- *|* * ne,|die mir|bes- ser ge-|fällt,|_|die mir|
w: fer _|_ _ her,|she is|dear- er to|me,|_|she is|
{/B} A3/2 ^G/ ^F |{/^G} B3- | B3 | z ^F ^G |{/B} A3/2 ^G/ ^F | E3- | E z z | z3 | z3 |!p! =G3 | %71
w: bes- ser ge-|fällt',|_|die mir|bes- ser ge-|fällt.|_|||Und|
w: dear- er to|me,|_|she is|dear- er to|me.|_|||An|
 A B d | c3 | =B2!f! A | G3/2 c/ c | c2 d | e3- | e z z |!p![Q:1/4=120]"^gedehnt" f3 | f3/2 f/ f | %80
w: spricht sie vom|Frei-|en, so|schwing' ich mich|auf mein|Ross,|_|ich|blei- be im|
w: she talk of|court-|ing, I|mount on my|nag, and|roam:|_|Else-|where I'll go|
!<(! F3-!<)! | F2 ^F |[Q:1/4=140]"^a tempo" z z!p! G | G A B |{/B} G3- | G z z | z z G | G A B | %88
w: Frei-|* en,|und|sie auf dem|Schloss,|_|und|sie auf dem|
w: sport-|* ing,|and|she'll stay at|home,|_|and|she'll stay at|
{/B} G3- | G z z | z z G | G A B | c z z | z3 | z3 | z3 | z3 | z3 | z3 | z3 | !fermata!z3 |] %101
w: Schloss,|_|und|sie auf dem|Schloss.|||||||||
w: home,|_|and|she'll stay at|home.|||||||||
V:2
!p! .G,z.C | .A,.B,.[F,D] | .G,z.C | .A,.B,.[F,D] |!<(! .G,.C.B, | ([^F,B,-]3 | [G,B,]3) | %7
{/C} .B,.A,.B,!<)! |!f!{/B,} [G,C] z z |!>(!{/B,} [G,C] z z |{/B,} [G,C] z z |{/B,} [G,C] z z!>)! | %12
!p!{/B,} [G,C] z z |{/B,} [A,C] z z | .G,z.C | .A,.B,.[F,D] |{/B,} [G,C] z z | %17
!<(!{/^E,} [^F,B,]3!<)! |{/^F,} [G,B,]3 |{/C} [G,B,].A,.B, |{/B,} .[G,C] z z |{/B,} .[A,C] z z | %22
 .G,z.[F,C] | .G,.A,.^A, |{/^A,} .[=A,B,] z z |[K:treble]{/^D} [G,E]3 |{/^D} [G,E]3 |{/^D} [G,E]3 | %28
!pp!{/E} [=DF] z z |{/E} [^CF] z z | .[FA]z.[^Fd] | .B.^c.e | .A.d.^c |{/d} [^E^G^c]3 | %34
{/d} [^E^G^c]3 |{/d} .[=E=G^c].[DGB].[^CGA] |{/^G} .[^FA] z z |{/^A} .[GB] z z | .[^FA]z.[^Ed] | %39
 .A.B.^B |{/^d} [^E=B^c]2 z |{/^e} [^A^f]3 |{/^e} [^A^f]3 |{/^e} [^A^f]3 | %44
!p!"^ein wenig zurückhaltend"{/^A} [GB] z z |{/^A} [GB] z z | .[^A^c]z!<(!.[Ae] | %47
 .^d.^e!<)!!mf!{/^g}^f |!p!{/^A} [=GB] z z |{/^A} [GB] z z | .[_A=f]z.[d_a] | .g=a{/c'}_b | %52
"^frisch"!<(! .[^ca]z.[A^f] | .[B^c]z.[A^d]!<)! |!f! .[E^d]!>(!z.[^ce] | .[E^F]z!>)!.[F^c] | %56
!p! z z{/^c} [EB] | z z{/^A} [^DB] | z z{/^A} [EB] | z z{/e} [EB] | z z{/^c} [EB] | %61
 z z{/^A} [^DB] | z z{/^A} .[EB] | z z{/e} .[EB] | z z!<(!{/^c} .[EB] | z z!<)!{/^A} .[^DB] | %66
 z z{/^A} .[EB] |!<(! z z{/^d} .[^Ge]!<)! |!<(! z z{/^d} [^Ge] | z!<)!!>(! z{/^d} [^Ge]!>)! | %70
!p! .=G,z.C | .A,.B,.[F,D] | .[EG]z._B |!<(! .A.=B.d | .G,z.C |{/D} [A,C].B,!<)!.A, | %76
!f! .[^GB]z.e | .^c.^d{/^f}e |"^gedehnt"!pp! ((_E2{/G} =F)) | (_E2{/G} F) |!<(! (_B,2{/G} F-) | %81
 FE!<)!D |!mf!"^a tempo" G!p! .d.e |{/g} fed |{/^f} g3 |{/a} g3- | g x x |{/g} fed |{/^f} g3 | %89
{/a} g3- | g x x |{/g} fed | z z!mf! .[dgb] | .[egc']!p! .D.E |{/G} .F.E.D | C"_dim." z z | z3 | %97
 z3 | z3 |!pp! z3 | z3 |] %101
V:3
 .[E,,E,]z.[C,,C,] | .[F,,F,]z.[C,,C,] |"^durchweg staccato" .[E,,E,]z.[C,,C,] | %3
 .[F,,F,]z.[C,,C,] | .[E,,E,]z.[C,,C,] | .[^D,,^D,]z.[C,,C,] | .[E,,E,]z.[C,,C,] | %7
 .[F,,F,]z.[C,,C,] | .[E,,E,]z.[C,,C,] | .[E,,E,]z.[C,,C,] | .[E,,E,]z.[C,,C,] | %11
 .[E,,E,]z.[C,,C,] | .[E,,E,]z.[C,,C,] | .[F,,F,]z.[C,,C,] | .[E,,E,]z.[C,,C,] | %15
 .[F,,F,]z.[C,,C,] | .[E,,E,]z.[C,,C,] | .[^D,,^D,]z.[C,,C,] | .[E,,E,]z.[C,,C,] | %19
 .[F,,F,]z.[C,,C,] | .[E,,E,]z.[C,,C,] | .[F,,F,]z.[C,,C,] | .[E,,E,]z.[C,,C,] | %23
 .[F,,F,]z.[C,,C,] | .[^F,,^F,]z.[B,,,B,,] | .[E,,E,]z.[B,,B,] | .[E,,E,]z.[B,,B,] | %27
 .[E,,E,]z.[B,,B,] | .[D,,D,]z.[A,,A,] | .[D,,D,]z.[A,,A,] | .[D,,D,]z.[A,,A,] | %31
 .[D,,D,]z.[A,,A,] | .[D,,D,]z.[A,,A,] | .[D,,D,]z.[A,,A,] | .[D,,D,]z.[A,,A,] | %35
 .[D,,D,]z.[A,,A,] | .[D,,D,]z.[A,,A,] | .[D,,D,]z.[A,,A,] | .[D,,D,]z.[A,,A,] | %39
 .[D,,D,]z.[A,,A,] | .[^C,,^C,]"^rit."z.[^G,,^G,] |"^a tempo" .[^F,,^F,]z.[^C,^C] | %42
 .[^F,,^F,]z.[^C,^C] | .[^F,,^F,]z.[^C,^C] | .[E,,E,]z.[B,,B,] | .[E,,E,]z.[^C,^C] | %46
 .[^F,,^F,]z.[^C,^C] | .[^F,,^F,]z.[^C,^C] | .[E,,E,]z.[B,,B,] |"^rit." .[E,,E,]z.[^C,^C] | %50
"^sehr zart" .[_B,,_B,]z.[=F,=F] | .[_B,,_B,]z.[F,F] | .[=B,,=B,]z.[^F,^F] | .[B,,B,]z.[^F,^F] | %54
 .[^C,^C]z.[^G,^G] | .[A,,A,]z.[E,E] | .[E,,E,]z.[B,,B,] | .[B,,,B,,]z.[A,,A,] | %58
 .[^G,,^G,]z.[B,,B,] | .[E,,E,]z.[B,,B,] | .[B,,,B,,]z.[B,,B,] | .[^F,,^F,]z.[B,,B,] | %62
 .[E,,E,]z.[B,,B,] | .[^G,,^G,]z.[B,,B,] | .[^F,,^F,]z.[B,,B,] | .[B,,,B,,]z.[B,,B,] | %66
!ped! .[E,,E,]z.[B,,B,] | .[E,,E,]z.[B,,B,] | .[E,,E,]z.[B,,B,] | .[E,,E,]z.[B,,B,]!ped-up! | %70
 .[E,,E,]z.[C,,C,] | .[F,,F,]z.[C,,C,] | .[E,,E,]z.[C,,C,] | .[F,,F,]z.[C,,C,] | %74
 .[E,,E,]z.[C,,C,] | .[F,,F,]z.[C,C] | .[E,,E,]z.[B,,B,] | .[E,,E,]z.[B,,B,] | .[=C,=C]z.[F,,F,] | %79
 .[C,C]z.[F,,F,] | .[D,D]z.[F,,F,] | .[=B,,,=B,,]z.[_A,,_A,] | .[G,,G,]z.[G,G] | .[D,D]z.[G,G] | %84
 .[E,E]z.[G,G] | .[C,C]z.[G,G] |{/[^F,,^F,]} .[G,,G,]z.[G,G] | .[D,D]z.[G,G] | .[E,E]z.[G,G] | %89
 .[C,C]z.[G,G] |{/[^C,^C]} .[D,D]z.[G,G] | .[G,,G,]z.[G,G] | z z .[G,,G,] | .[C,,C,] z z | z3 | %95
{/G,} .F,.E,.D, |{/D,} .C,.B,,.A,, |{/G,,} .F,,.E,,.D,, | .C,, z z | [C,G,C]3- | %100
 !fermata![C,G,C]3 |] %101
V:4
 x3 | x3 | x3 | x3 | x3 | x3 | x3 | .G,z.F, | x3 | x3 | x3 | x3 | x3 | x3 | x3 | x3 | x3 | x3 | %18
 x!>(! x x!>)! | x3 | x3 | x3 | x3 | x3 | x3 |[K:treble] x3 | x3 | x3 | x3 | x3 | x3 | .Gz.G | %32
 .^Fz.F | x3 | x3 | x3 | x3 | x3 | x3 | .^Fz.F | x3 | x3 | x3 | x3 | x3 | x3 | x3 | .Bz.^A | x3 | %49
 x3 | x3 | ._ezd | x3 | x3 | x3 | x3 | x3 | x3 | x3 | x3 | x3 | x3 | x3 | x3 | x3 | x3 | x3 | x3 | %68
 x3 | x3 | x3 | x3 | x3 | .Fz.F | x3 | x3 | x3 | .Az.^G | A,3 | A,3 | (_B,3 | A,2) C | x3 | B z z | %84
 c3- | c3- | c .d.e | B z z | c3- | c3- | c .d.e | B z z | x3 | x3 | x3 | x3 | x3 | x3 | x3 | x3 | %100
 x3 |] %101
V:5
 x3 | x3 | x3 | x3 | x3 | x3 | x3 | x3 | x3 | x3 | x3 | x3 | x3 | x3 | x3 | x3 | x3 | x3 | x3 | %19
 x3 | x3 | x3 | x3 | x3 | x3 | x3 | x3 | x3 | x3 | x3 | x3 | x3 | x3 | x3 | x3 | x3 | x3 | x3 | %38
 x3 | x3 | x3 | x3 | x3 | x3 | x3 | x3 | x3 | x3 | x3 | x3 | x3 | x3 | x3 | x3 | x3 | x3 | x3 | %57
 x3 | x3 | x3 | x3 | x3 | x3 | x3 | x3 | x3 | x3 | x3 | x3 | x3 | x3 | x3 | x3 | x3 | x3 | x3 | %76
 x3 | x3 | x3 | x3 | x3 | x3 | x3 | x3 | x3 | x3 | x3 | x3 | x3 | x3 | x3 | x3 | x3 | x3 | x3 | %95
 x3 | x3 | x3 | x3 | .[C,,G,,] z z | x3 |] %101

